rewind-30.svg

<svg fill="currentColor" viewBox="0 0 24 24"><path d="M19 14v6c0 1.11-.89 2-2 2h-2a2 2 0 0 1-2-2v-6a2 2 0 0 1 2-2h2a2 2 0 0 1 2 2m-4 0v6h2v-6zm-4 6a2 2 0 0 1-2 2H5v-2h4v-2H7v-2h2v-2H5v-2h4a2 2 0 0 1 2 2v1.5A1.5 1.5 0 0 1 9.5 17a1.5 1.5 0 0 1 1.5 1.5zm1.5-17c4.65 0 8.58 3.03 9.97 7.22L20.1 11c-1.05-3.19-4.06-5.5-7.6-5.5-1.96 0-3.73.72-5.12 1.88L10 10H3V3l2.6 2.6C7.45 4 9.85 3 12.5 3"/></svg>

<svg  viewBox="0 0 24 24" fill="currentColor"><path  d="M19,14V20C19,21.11 18.11,22 17,22H15A2,2 0 0,1 13,20V14A2,2 0 0,1 15,12H17C18.11,12 19,12.9 19,14M15,14V20H17V14H15M11,20C11,21.11 10.1,22 9,22H5V20H9V18H7V16H9V14H5V12H9A2,2 0 0,1 11,14V15.5A1.5,1.5 0 0,1 9.5,17A1.5,1.5 0 0,1 11,18.5V20M12.5,3C17.15,3 21.08,6.03 22.47,10.22L20.1,11C19.05,7.81 16.04,5.5 12.5,5.5C10.54,5.5 8.77,6.22 7.38,7.38L10,10H3V3L5.6,5.6C7.45,4 9.85,3 12.5,3Z"/></svg>
